X: 34
T:Boxing the Compass. ST.34
M:2/4
L:1/8
Q:140
S:Annonymous Staffordshire MS, Early 19thC.
R:Air
O:England
A:Staffordshire
Z:vmp.Tim Willets   
K:G
d/c/|Bd gd/c/|BG GA/B/|cABG|FADF|!
GBe^c|d2g2|f/g/a A^c|d2z2d||!
^cc c/d/e/f/|gf/e/ fd|BB B/c/d/e/|=fe/d/ ed/d/|!
cd/e/ EA/G/|F2z/d/e/f/|gefd|e/d/^c/e/ dd|!
^cd/e/ Ac|d2 zd/c/|BG GA/G/|!
FA/c/ AG/F/|B/d/e/f/ g/e/d/c/|BGG|]
